X: 7
T: The Dawning Of The Day
R: barndance
M: 4/4
L: 1/8
K: Dmaj
DE |F4 F2 | F3 E F2 | A4 FA | B2 A2 F2 | D4 FE | D4 D2 | D6- | D4 FA |
B4 GA | B3 c dA | F4 E/F/E | D4 F2 | A4 ^GA | dF- F4 | E6- | E4 FA | ~
B2 G2 A2 | B2 c2- cd | F4 E2 | D4- DF | A4 F2 | d4 F2 | E6- | E2 D2 E2 |
F4- FF | F2 E2 F2 | A4 A2 | B2 A2 F2 | D2 F2- FE | D4 D2 | D6- | D4 |]


